X: 3438
T: Bethany's
R: waltz
M: 3/4
K: Gmajor
d3c BA|{A}B2 G4|FG AD FG|AB {c}BA FA|
{c}d3 c BA|{A}B2 G4|FG AD FA|{F}G3 A Bc:|
|:{c}d2 g3 {ag}f|{f}g2 d4|{B}cB AG FE|DE FG AB|
{c}d2 g3 {ag}f|{f}g2 d4|{B}cB AG FD|1 {F}G3A Bc:|2 {F}G6||
|:A3B c/B/A|B3 c d/c/B|{B}c3 d ec|dg fg dG|
F3G AF|{F}G3A Bd|{B}c2 B3 G|FG AF {F}G2:|

